svg/alphanum/f-square.svg

<svg width="448" height="512" viewBox="0 0 448 512" version="1.1" xmlns="http://www.w3.org/2000/svg"><path fill="currentColor" d="M400,480l-352,0c-26.51,0 -48,-21.49 -48,-48l0,-352c0,-26.51 21.49,-48 48,-48l352,0c26.51,0 48,21.49 48,48l0,352c0,26.51 -21.49,48 -48,48Zm-96,-352l-160,0c-8.837,0 -16,7.163 -16,16l0,224c0,8.837 7.163,16 16,16l32,0c8.837,0 16,-7.163 16,-16l0,-80l80,0c8.837,0 16,-7.163 16,-16l0,-32c0,-8.837 -7.163,-16 -16,-16l-80,0l0,-32l112,0c8.837,0 16,-7.163 16,-16l0,-32c0,-8.837 -7.163,-16 -16,-16Z"></path></svg>

<svg width="448" height="512" viewBox="0 0 448 512" fill="none" xmlns="http://www.w3.org/2000/svg">
<path fill-rule="evenodd" clip-rule="evenodd" d="M48 32C21.4903 32 0 53.4903 0 80V432C0 458.51 21.4903 480 48 480H400C426.51 480 448 458.51 448 432V80C448 53.4903 426.51 32 400 32H48ZM144 128C135.163 128 128 135.163 128 144V368C128 376.837 135.163 384 144 384H176C184.837 384 192 376.837 192 368V288H272C280.837 288 288 280.837 288 272V240C288 231.163 280.837 224 272 224H192V192H304C312.837 192 320 184.837 320 176V144C320 135.163 312.837 128 304 128H144Z" fill="black"/>
</svg>
